icons/lines/brush-one.svg

<svg xmlns="http://www.w3.org/2000/svg" width="24" height="24" viewBox="0 0 24 24" fill="none" stroke="currentColor" stroke-width="2" stroke-linecap="round" stroke-linejoin="round" >
  <g clip-path="url(#clip0_40_2698)">
  <path d="M10.9702 2H8.97021C3.97021 2 1.97021 4 1.97021 9V15C1.97021 20 3.97021 22 8.97021 22H14.9702C19.9702 22 21.9702 20 21.9702 15V13"/>
  <path d="M21.8799 3.56001C20.6499 6.63001 17.5599 10.81 14.9799 12.88L13.3999 14.14C13.1999 14.29 12.9999 14.41 12.7699 14.5C12.7699 14.35 12.7599 14.2 12.7399 14.04C12.6499 13.37 12.3499 12.74 11.8099 12.21C11.2599 11.66 10.5999 11.35 9.91994 11.26C9.75994 11.25 9.59994 11.24 9.43994 11.25C9.52994 11 9.65994 10.77 9.82994 10.58L11.0899 9.00001C13.1599 6.42001 17.3499 3.31001 20.4099 2.08001C20.8799 1.90001 21.3399 2.04001 21.6299 2.33001C21.9299 2.63001 22.0699 3.09001 21.8799 3.56001Z"/>
  <path d="M12.7801 14.49C12.7801 15.37 12.4401 16.21 11.8101 16.85C11.3201 17.34 10.6601 17.68 9.87009 17.78L7.90009 17.99C6.83009 18.11 5.91009 17.2 6.03009 16.11L6.24009 14.14C6.43009 12.39 7.89009 11.27 9.45009 11.24C9.61009 11.23 9.77009 11.24 9.93009 11.25C10.6101 11.34 11.2701 11.65 11.8201 12.2C12.3601 12.74 12.6601 13.36 12.7501 14.03C12.7701 14.19 12.7801 14.35 12.7801 14.49Z"/>
  <path d="M15.8198 11.98C15.8198 9.89 14.1298 8.19 12.0298 8.19"/>
  </g>
  <defs>
  <clipPath id="clip0_40_2698">
  <rect width="24" height="24"/>
  </clipPath>
  </defs>
  </svg>

<svg xmlns="http://www.w3.org/2000/svg" width="24" height="24" viewBox="0 0 24 24" fill="none" stroke="currentColor" stroke-width="2" stroke-linecap="round" stroke-linejoin="round">
  <path d="M10.97 2h-2c-5 0-7 2-7 7v6c0 5 2 7 7 7h6c5 0 7-2 7-7v-2" />
  <path d="M12.78 14.49a3.35 3.35 0 0 1-2.91 3.29l-1.97.21a1.7 1.7 0 0 1-1.87-1.88l.21-1.97c.19-1.75 1.65-2.87 3.21-2.9a4 4 0 0 1 .48.01 3.26 3.26 0 0 1 1.89.95 3.14 3.14 0 0 1 .93 1.83 4 4 0 0 1 .03.46" />
  <path d="M15.82 11.98a3.79 3.79 0 0 0-3.79-3.79" />
  <path d="M21.88 3.56c-1.23 3.07-4.32 7.25-6.9 9.32l-1.58 1.26a2.6 2.6 0 0 1-.63.36 4 4 0 0 0-.03-.46 3.1 3.1 0 0 0-.93-1.83 3.26 3.26 0 0 0-1.89-.95 4 4 0 0 0-.48-.01 2 2 0 0 1 .39-.67L11.09 9c2.07-2.58 6.26-5.69 9.32-6.92a1.13 1.13 0 0 1 1.47 1.48" />
</svg>
